X:3
T:Alone Together
C:Arthur Schwartz
L:1/4
M:C
I:linebreak $
K:F
D |:"Dm" F2- F D |"Eø" E E-"A7" E2 |"Dm" z D E3/2 F/ |"Eø" A4 "A7" x4|"Dm" z D"Em" E3/2 F/ |
"Aø" A4 "D7" x4|"Gm" z z/ G/ A3/2 B/ | d2- d d ||$"Bm" e2-"E7" e d |"Gm" c2-"C7" c B |
"F" A3/2 G/"F7" A3/2 G/ |"Eø" A2- A"A7" G ||1"D" ^F ^F2- F |"Eø" z2"A7" z D :|2"D" ^F4 |
z2 z D |$"Aø" c4 |"D7" (3z A B (3c _e d |"Gm" B4 | z2 z D |"Gø" B4 |"C7" (3z G A (3B _d c |
"F" A2-"F7" A F |"Eø" G2-"A7" G D ||$"Dm" F2- F D |"Eø" E E-"A7" E2 |"Dm" z D E3/2 F/ |
"Eø" A2"A7" z2 |"Dm" z z/ A/ =B3/2 d/ |"Bb7" f2-"A+" f ^c |"Dm6" d d2- d |]

